!!!!SEGMENT: Ric2030-Magnificat_sexti_toni
!!!id: Ric2030
!!!AGN: Motet
!!!voices: 3-5
!!!COM: Jean Richafort
!!!OTL: Magnificat sexti toni
**kern	**kern	**kern	**kern	**kern
*part5	*part4	*part3	*part2	*part1
*staff5	*staff4	*staff3	*staff2	*staff1
*I"Bassus	*I"Tenor II	*I"Tenor I	*I"Altus	*I"Superius
*I'B	*I'T. II	*I'T. I	*I'A	*I'S
*clefF4	*clefGv2	*clefGv2	*clefGv2	*clefG2
*k[b-]	*k[b-]	*k[b-]	*k[b-]	*k[b-]
*M2/1	*M2/1	*M2/1	*M2/1	*M2/1
*met(C|)	*met(C|)	*met(C|)	*met(C|)	*met(C|)
=1	=1	=1	=1	=1
!!section: Et exultavit
!!!OMD: Et exultavit
1r	0r	0F	0r	0r
2r	.	.	.	.
[2F	.	.	.	.
=2	=2	=2	=2	=2
2F]	0r	0G	0r	0r
4E	.	.	.	.
4D	.	.	.	.
1E	.	.	.	.
=3	=3	=3	=3	=3
4F	0r	1.A	1r	0f
4E	.	.	.	.
4D	.	.	.	.
4C	.	.	.	.
1D	.	.	2r	.
.	.	4G	[2f	.
.	.	4F	.	.
=4	=4	=4	=4	=4
2C	0r	1c	2f]	0g
4BB-y	.	.	4e	.
4AA	.	.	4d	.
1GG	.	1B-y	1e	.
=5	=5	=5	=5	=5
[0FF	0r	2A	0f	0a
.	.	1c	.	.
.	.	[2F	.	.
=6	=6	=6	=6	=6
0FF]	0r	4F]	2r	1a
.	.	4G	.	.
.	.	4A	2.F	.
.	.	4B-y	.	.
.	.	2c	.	1a
.	.	.	4G	.
.	.	[2F	4A	.
.	.	.	4B-y	.
=7	=7	=7	=7	=7
2r	0r	2F]	1c	0a
2C	.	2E	.	.
2D	.	1F	1A	.
[2F	.	.	.	.
=8	=8	=8	=8	=8
2F]	0r	0G	1B-y	1r
4E	.	.	.	.
4D	.	.	.	.
1E	.	.	1B-y	1g
=9	=9	=9	=9	=9
0F	0r	1F	2A	0a
.	.	.	2c	.
.	.	1A	2d	.
.	.	.	[2f	.
=10	=10	=10	=10	=10
0r	0r	2.G	2f]	0b-y
.	.	.	4e	.
.	.	4F	4d	.
.	.	1G	1e	.
=11	=11	=11	=11	=11
1FF	0r	2F	1.f	1a
.	.	2C	.	.
1FF	.	2D	.	2a
.	.	[2F	4e	[2a
.	.	.	4d	.
=12	=12	=12	=12	=12
2AA	0r	2F]	2c	2a]
2BB-y	.	4E	2d	4g
.	.	4D	.	4f
1GG	.	1E	1B-y	1g
=13	=13	=13	=13	=13
1FF	0r	0F	2A	0a
.	.	.	2c	.
1r	.	.	2A	.
.	.	.	[2c	.
=14	=14	=14	=14	=14
1AA	0r	2r	4c]	0r
.	.	.	4B-y	.
.	.	2c	4A	.
.	.	.	4G	.
2AA	.	2A	4F	.
.	.	.	4E	.
[2AA	.	[2c	2A	.
=15	=15	=15	=15	=15
2AA]	0r	4c]	0r	0r
.	.	4B-y	.	.
2AA	.	4A	.	.
.	.	4G	.	.
2AA	.	4F	.	.
.	.	4E	.	.
2FF	.	2A	.	.
=16	=16	=16	=16	=16
2GG	0r	2G	0r	0r
2AA	.	1F	.	.
1GG	.	.	.	.
.	.	2E	.	.
=17	=17	=17	=17	=17
[0FF	0r	0F	2r	1r
.	.	.	2c	.
.	.	.	2d	1a
.	.	.	[2f	.
=18	=18	=18	=18	=18
0FF]	0r	0r	2f]	2a
.	.	.	2c	1a
.	.	.	2d	.
.	.	.	[2f	2a
=19	=19	=19	=19	=19
0r	0r	0r	2f]	2a
.	.	.	4e	2f
.	.	.	4d	.
.	.	.	2c	2g
.	.	.	[2f	2a
=20	=20	=20	=20	=20
2r	0r	1r	2f]	1g
2C	.	.	2e	.
2D	.	1A	1f	1f
[2F	.	.	.	.
=21	=21	=21	=21	=21
2F]	0r	2A	0r	0r
2C	.	1A	.	.
2D	.	.	.	.
[2F	.	2A	.	.
=22	=22	=22	=22	=22
2F]	0r	2A	0r	0r
4E	.	2F	.	.
4D	.	.	.	.
2C	.	2G	.	.
[2F	.	2A	.	.
=23	=23	=23	=23	=23
2F]	0r	1G	0r	1r
2E	.	.	.	.
1F	.	1F	.	2r
.	.	.	.	[2a
=24	=24	=24	=24	=24
0FF	0r	2c	1A	4a]
.	.	.	.	4b-y
.	.	2A	.	2cc
.	.	2.c	2A	2a
.	.	.	[2A	[2cc
.	.	4B-y	.	.
=25	=25	=25	=25	=25
0F	0r	4A	2A]	4cc]
.	.	4G	.	4b-y
.	.	2F	2A	4a
.	.	.	.	4g
.	.	1c	2A	4f
.	.	.	.	4e
.	.	.	2F	2a
=26	=26	=26	=26	=26
0C	0r	2r	2G	2g
.	.	1c	2A	1f
.	.	.	1G	.
.	.	4B-y	.	2e
.	.	4A	.	.
=27	=27	=27	=27	=27
0FFl	0r	0Al	0Fl	0fl
=28||	=28||	=28||	=28||	=28||
*M2/1	*M2/1	*M2/1	*M2/1	*M2/1
*met(C|)	*met(C|)	*met(C|)	*met(C|)	*met(C|)
!!section: Quia fecit
!!!OMD: Quia fecit
0r	0r	0r	0r	0f
=29	=29	=29	=29	=29
0r	0r	0r	0r	0g
=30	=30	=30	=30	=30
0r	0r	2r	0F	2.a
.	.	1f	.	.
.	.	.	.	4b-y
.	.	.	.	2cc
.	.	4e	.	[2dd
.	.	4d	.	.
=31	=31	=31	=31	=31
0r	0r	2.e	0G	4dd]
.	.	.	.	4cc
.	.	.	.	1cc
.	.	4f	.	.
.	.	1d	.	.
.	.	.	.	2bnXi
=32	=32	=32	=32	=32
0FF	0r	2c	2.A	1cc
.	.	1F	.	.
.	.	.	4B-y	.
.	.	.	2c	1r
.	.	4E	[2d	.
.	.	4D	.	.
=33	=33	=33	=33	=33
0GG	0r	2.E	4d]	0r
.	.	.	4c	.
.	.	.	1c	.
.	.	4F	.	.
.	.	1D	.	.
.	.	.	2BnXi	.
=34	=34	=34	=34	=34
0AA	0r	1C	1.c	0r
.	.	[1c	.	.
.	.	.	4B-y	.
.	.	.	4A	.
=35	=35	=35	=35	=35
0AA	0r	2c]	1A	1.cc
.	.	4B-y	.	.
.	.	4A	.	.
.	.	1A	2r	.
.	.	.	2A	4b-y
.	.	.	.	4a
=36	=36	=36	=36	=36
0AA	0r	2r	2.c	1a
.	.	2A	.	.
.	.	.	4B-y	.
.	.	2.c	2.A	2r
.	.	.	.	2a
.	.	4B-y	4G	.
=37	=37	=37	=37	=37
1AA	0r	2.A	2F	2.cc
.	.	.	4E	.
.	.	4G	4D	4b-y
1AA	.	2F	1C	2.a
.	.	4E	.	.
.	.	4D	.	4g
=38	=38	=38	=38	=38
1AA	0r	1C	1c	2f
.	.	.	.	4e
.	.	.	.	4d
1AA	.	2r	1r	1c
.	.	2c	.	.
=39	=39	=39	=39	=39
1GG	0r	2B-y	0r	0r
.	.	1d	.	.
1GG	.	.	.	.
.	.	4c	.	.
.	.	4B-y	.	.
=40	=40	=40	=40	=40
1AA	0r	2c	2r	0r
.	.	1A	2c	.
1BB-y	.	.	2B-y	.
.	.	4G	[2d	.
.	.	4F	.	.
=41	=41	=41	=41	=41
1BB-y	0r	1G	2d]	1r
.	.	.	4c	.
.	.	.	4B-y	.
1AA	.	1A	2c	2r
.	.	.	[2A	2cc
=42	=42	=42	=42	=42
0BB-y	0r	0D	2A]	2b-y
.	.	.	4G	1dd
.	.	.	4F	.
.	.	.	1G	.
.	.	.	.	4cc
.	.	.	.	4b-y
=43	=43	=43	=43	=43
0AA	0r	1E	2A	2cc
.	.	.	1c	1a
.	.	1F	.	.
.	.	.	4B-y	4g
.	.	.	4A	4f
=44	=44	=44	=44	=44
1r	0r	0E	1B-y	1g
1AA	.	.	2A	1a
.	.	.	[2c	.
=45	=45	=45	=45	=45
1AA	0r	0r	4c]	0r
.	.	.	4B-y	.
.	.	.	4A	.
.	.	.	4G	.
1AA	.	.	2F	.
.	.	.	[2A	.
=46	=46	=46	=46	=46
1FF	0r	0r	4A]	0r
.	.	.	4G	.
.	.	.	4F	.
.	.	.	4E	.
1GG	.	.	4D	.
.	.	.	4C	.
.	.	.	[2G	.
=47	=47	=47	=47	=47
1AA	0r	0r	2G]	1r
.	.	.	1F	.
1GG	.	.	.	2r
.	.	.	2E	2g
=48	=48	=48	=48	=48
0FF	0r	1A	2F	2a
.	.	.	2C	2.cc
.	.	1A	2.c	.
.	.	.	.	4b-y
.	.	.	.	4a
.	.	.	4B-y	4g
=49	=49	=49	=49	=49
1FF	0r	1A	4A	4f
.	.	.	4G	4e
.	.	.	2F	2.a
2FF	.	1F	2c	.
.	.	.	.	4g
[2F	.	.	2A	4f
.	.	.	.	4e
=50	=50	=50	=50	=50
2F]	0r	1G	1B-y	4d
.	.	.	.	4c
2E	.	.	.	2.g
1F	.	1A	2A	.
.	.	.	.	4f
.	.	.	[2c	[2f
=51	=51	=51	=51	=51
0C	0r	0G	2c]	2f]
.	.	.	2c	4e
.	.	.	.	4d
.	.	.	1c	1e
=52	=52	=52	=52	=52
0FFl	0r	0Fl	0cl	0fl
=53||	=53||	=53||	=53||	=53||
*M2/1	*M2/1	*M2/1	*M2/1	*M2/1
*met(C|)	*met(C|)	*met(C|)	*met(C|)	*met(C|)
!!section: Fecit potentiam
!!!OMD: Fecit potentiam
2.FF	0r	0r	[0F	0r
4GG	.	.	.	.
2AA	.	.	.	.
[2BB-y	.	.	.	.
=54	=54	=54	=54	=54
2BB-]	0r	2r	0F]	0r
2AA	.	2C	.	.
2BB-y	.	2D	.	.
2D	.	[2F	.	.
=55	=55	=55	=55	=55
2.C	0r	2F]	0G	0r
.	.	4E	.	.
8BB-yL	.	4D	.	.
8AAJ	.	.	.	.
1GG	.	1E	.	.
=56	=56	=56	=56	=56
1FF	0r	2.F	2.A	[0f
.	.	4G	4B-y	.
1r	.	2A	2c	.
.	.	[2B-y	[2d	.
=57	=57	=57	=57	=57
0r	0r	2B-]	2d]	0f]
.	.	2A	2c	.
.	.	2B-y	2d	.
.	.	2d	[2f	.
=58	=58	=58	=58	=58
0r	0r	2c	2f]	0g
.	.	4B-y	4e	.
.	.	4A	4d	.
.	.	1G	1e	.
=59	=59	=59	=59	=59
0FF	0r	2r	1f	[0a
.	.	2F	.	.
.	.	2D	2r	.
.	.	2C	2f	.
=60	=60	=60	=60	=60
1.FF	0r	2F	2d	0a]
.	.	4E	2c	.
.	.	4D	.	.
.	.	1C	2f	.
2FF	.	.	4e	.
.	.	.	4d	.
=61	=61	=61	=61	=61
0FF	0r	2r	1c	1a
.	.	2C	.	.
.	.	2D	2r	1a
.	.	2C	2c	.
=62	=62	=62	=62	=62
0FF	0r	2.F	2d	1a
.	.	.	2c	.
.	.	4E	.	.
.	.	4D	1f	1a
.	.	4C	.	.
.	.	[2F	.	.
=63	=63	=63	=63	=63
1GG	0r	2F]	1r	1g
.	.	2E	.	.
[1FF	.	1F	2r	1a
.	.	.	2c	.
=64	=64	=64	=64	=64
1FF]	0r	2r	2d	1.a
.	.	2F	2c	.
1r	.	2F	2.f	.
.	.	2F	.	2a
.	.	.	4e	.
=65	=65	=65	=65	=65
0r	0r	1F	4d	1a
.	.	.	4c	.
.	.	.	1f	.
.	.	1G	.	1b-y
.	.	.	2e	.
=66	=66	=66	=66	=66
2r	0r	1F	2f	1a
2F	.	.	2c	.
2F	.	2r	2d	2a
2F	.	2c	[2f	[2a
=67	=67	=67	=67	=67
1F	0r	2d	4f]	2a]
.	.	.	4e	.
.	.	1f	4d	2a
.	.	.	4c	.
1G	.	.	1B-y	2g
.	.	2e	.	2b-y
=68	=68	=68	=68	=68
1.F	0r	2f	2c	2a
.	.	4e	2F	2.cc
.	.	4d	.	.
.	.	2c	2F	.
.	.	.	.	4b-y
2D	.	2d	2F	4a
.	.	.	.	4g
=69	=69	=69	=69	=69
1D	0r	2A	1F	2.a
.	.	2B-y	.	.
.	.	.	.	4g
1C	.	1c	1G	1e
=70	=70	=70	=70	=70
2r	0r	1A	2.F	1f
[2F	.	.	.	.
.	.	.	4E	.
4F]	.	2A	4D	1r
4E	.	.	4C	.
2D	.	[2A	2F	.
=71	=71	=71	=71	=71
2C	0r	2A]	2E	0r
2D	.	2A	2F	.
2AA	.	2A	2E	.
[2F	.	[2A	[2D	.
=72	=72	=72	=72	=72
4F]	0r	2A]	4D]	0r
4E	.	.	4C	.
2D	.	4G	2F	.
.	.	4F	.	.
2C	.	2A	2E	.
[2BB-y	.	[2G	[2D	.
=73	=73	=73	=73	=73
4BB-]	0r	2G]	4D]	0r
4C	.	.	8CL	.
.	.	.	8BB-yJ	.
2AA	.	1F	1C	.
1GG	.	.	.	.
.	.	2E	2BB-y	.
=74	=74	=74	=74	=74
[0FF	0r	2.F	2C	1r
.	.	.	2.F	.
.	.	4E	.	.
.	.	4D	.	1a
.	.	4C	4E	.
.	.	2F	4D	.
.	.	.	4C	.
=75	=75	=75	=75	=75
0FF]	0r	2C	2F	2a
.	.	2.c	2C	2a
.	.	.	[2c	2a
.	.	4B-y	.	.
.	.	4A	4c]	2a
.	.	4G	4B-y	.
=76	=76	=76	=76	=76
1.F	0r	4c	4A	2a
.	.	4B-y	4G	.
.	.	4A	2.c	2f
.	.	4G	.	.
.	.	2F	.	2a
.	.	.	4d	.
2E	.	2c	2e	[2g
=77	=77	=77	=77	=77
1D	0r	4B-y	2f	2g]
.	.	4A	.	.
.	.	4G	2B-y	1f
.	.	4F	.	.
1C	.	1G	1c	.
.	.	.	.	2e
=78	=78	=78	=78	=78
0FFl	0r	0Fl	0cl	0fl
=79||	=79||	=79||	=79||	=79||
*M2/1	*M2/1	*M2/1	*M2/1	*M2/1
*met(C|)	*met(C|)	*met(C|)	*met(C|)	*met(C|)
!!section: Esurientes
!!!OMD: Esurientes
0r	0r	0r	2r	0f
.	.	.	1f	.
.	.	.	2d	.
=80	=80	=80	=80	=80
0r	0r	0r	2e	1g
.	.	.	1c	.
.	.	.	.	1a
.	.	.	[2d	.
=81	=81	=81	=81	=81
0r	0r	0r	2d]	1a
.	.	.	4c	.
.	.	.	4B-y	.
.	.	.	2c	1a
.	.	.	2F	.
=82	=82	=82	=82	=82
2r	0r	0F	0r	0a
1F	.	.	.	.
2D	.	.	.	.
=83	=83	=83	=83	=83
2E	0r	1G	1r	0r
1C	.	.	.	.
.	.	1A	2r	.
[2D	.	.	[2f	.
=84	=84	=84	=84	=84
2D]	0r	1A	2f]	0r
4C	.	.	4e	.
4BB-y	.	.	4d	.
2C	.	1A	2e	.
[2FF	.	.	2f	.
=85	=85	=85	=85	=85
2FF]	0r	1A	4F	1a
.	.	.	4G	.
1F	.	.	4A	.
.	.	.	4B-y	.
.	.	1r	4c	1g
.	.	.	4d	.
2E	.	.	[2c	.
=86	=86	=86	=86	=86
2F	0r	0r	2c]	1a
2A	.	.	1f	.
1G	.	.	.	1b-y
.	.	.	2e	.
=87	=87	=87	=87	=87
1F	0r	4F	2f	1a
.	.	4G	.	.
.	.	4A	1F	.
.	.	4B-y	.	.
2FF	.	4c	.	1r
.	.	4d	.	.
2C	.	[2c	2E	.
=88	=88	=88	=88	=88
2AA	0r	2c]	2F	0r
2FF	.	1f	2A	.
1C	.	.	1G	.
.	.	2e	.	.
=89	=89	=89	=89	=89
2.FF	0r	2f	1F	1.a
.	.	1F	.	.
4GG	.	.	.	.
4AA	.	.	1r	.
4BB-y	.	.	.	.
2C	.	2E	.	[2g
=90	=90	=90	=90	=90
2AA	0r	2F	2r	2g]
2FF	.	2A	1c	1f
1C	.	1G	.	.
.	.	.	4B-y	2e
.	.	.	4A	.
=91	=91	=91	=91	=91
1FF	0r	2F	1c	1f
.	.	1c	.	.
2r	.	.	1A	1r
[2F	.	4B-y	.	.
.	.	4A	.	.
=92	=92	=92	=92	=92
2F]	0r	2c	2A	0r
4E	.	1F	2A	.
4D	.	.	.	.
2F	.	.	1A	.
[2FF	.	[2c	.	.
=93	=93	=93	=93	=93
2FF]	0r	2c]	1A	0r
1F	.	4B-y	.	.
.	.	4A	.	.
.	.	2c	1A	.
4E	.	4F	.	.
4D	.	4G	.	.
=94	=94	=94	=94	=94
2F	0r	4A	2A	0r
.	.	4B-y	.	.
4FF	.	2c	1A	.
4GG	.	.	.	.
4AA	.	2C	.	.
4BB-y	.	.	.	.
2C	.	2E	[2G	.
=95	=95	=95	=95	=95
2BB-y	0r	2D	2G]	0r
2AA	.	1C	1F	.
1GG	.	.	.	.
.	.	2BB-y	2E	.
=96	=96	=96	=96	=96
[0FF	0r	2C	1F	1r
.	.	2C	.	.
.	.	2.F	2r	1a
.	.	.	2C	.
.	.	4E	.	.
=97	=97	=97	=97	=97
0FF_	0r	2D	2.F	2a
.	.	2C	.	2a
.	.	.	4E	.
.	.	1F	2D	[1a
.	.	.	2C	.
=98	=98	=98	=98	=98
0FF]	0r	2r	1F	1a]
.	.	2C	.	.
.	.	2.F	2r	1a
.	.	.	2C	.
.	.	4G	.	.
=99	=99	=99	=99	=99
0r	0r	4A	2.F	2a
.	.	4B-y	.	.
.	.	2c	.	1a
.	.	.	4G	.
.	.	2F	4A	.
.	.	.	4B-y	.
.	.	2C	2c	[2g
=100	=100	=100	=100	=100
0r	0r	1D	2A	4g]
.	.	.	.	4f
.	.	.	4G	1f
.	.	.	4F	.
.	.	1C	1G	.
.	.	.	.	2e
=101	=101	=101	=101	=101
0FFl	0r	0Fl	0Fl	0fl
=102||	=102||	=102||	=102||	=102||
*M2/1	*M2/1	*M2/1	*M2/1	*M2/1
*met(C|)	*met(C|)	*met(C|)	*met(C|)	*met(C|)
!!section: Sicut locutus est
!!!OMD: Sicut locutus est
0F	0r	0r	0r	0r
=103	=103	=103	=103	=103
1.G	0r	0r	0r	0r
4F	.	.	.	.
4G	.	.	.	.
=104	=104	=104	=104	=104
1A	0r	0F	0r	0r
2AA	.	.	.	.
[2BB-y	.	.	.	.
=105	=105	=105	=105	=105
4BB-]	0r	1.G	2r	0r
4GG	.	.	.	.
2C	.	.	2C	.
2BB-y	.	.	2D	.
4AA	.	4F	2E	.
4GG	.	4G	.	.
=106	=106	=106	=106	=106
1.FF	0r	0A	1F	0r
.	.	.	2.c	.
[2F	.	.	.	.
.	.	.	4B-y	.
=107	=107	=107	=107	=107
4F]	0r	1A	2c	0r
4E	.	.	.	.
2F	.	.	2A	.
2D	.	2A	2F	.
2C	.	2A	[2c	.
=108	=108	=108	=108	=108
1F	0r	1A	2c]	0r
.	.	.	4B-y	.
.	.	.	4A	.
2E	.	1r	4G	.
.	.	.	4F	.
2F	.	.	2A	.
=109	=109	=109	=109	=109
4FF	0r	1A	2A	0r
4GG	.	.	.	.
4AA	.	.	4G	.
4BB-y	.	.	4F	.
4C	.	1G	4E	.
4BB-y	.	.	4C	.
[2C	.	.	[2G	.
=110	=110	=110	=110	=110
2C]	0r	1A	4G]	0r
.	.	.	4C	.
4BB-y	.	.	1F	.
4AA	.	.	.	.
1GG	.	1B-y	.	.
.	.	.	2E	.
=111	=111	=111	=111	=111
1FF	0r	1A	2.F	0r
.	.	.	4G	.
2.F	.	2r	4A	.
.	.	.	4B-y	.
.	.	[2A	2c	.
4E	.	.	.	.
=112	=112	=112	=112	=112
4D	0r	2A]	2F	0r
4C	.	.	.	.
2D	.	4G	1f	.
.	.	4F	.	.
1C	.	1G	.	.
.	.	.	4e	.
.	.	.	4d	.
=113	=113	=113	=113	=113
2.C	0r	1G	2e	0r
.	.	.	1E	.
4BB-y	.	.	.	.
2C	.	1A	.	.
[2D	.	.	[2F	.
=114	=114	=114	=114	=114
2D]	0r	1A	2F]	0r
4C	.	.	4E	.
4BB-y	.	.	4D	.
2AA	.	2A	2E	.
[2F	.	[2A	[2D	.
=115	=115	=115	=115	=115
2F]	0r	2A]	2D]	0r
4E	.	2A	2D	.
4D	.	.	.	.
2E	.	2A	2C	.
[2F	.	2A	[2D	.
=116	=116	=116	=116	=116
4F]	0r	2A	4D]	0r
4E	.	.	4C	.
4D	.	2A	1c	.
4C	.	.	.	.
1D	.	1F	.	.
.	.	.	2BnXi	.
=117	=117	=117	=117	=117
0C	0r	1G	[0c	0r
.	.	2A	.	.
.	.	[2G	.	.
=118	=118	=118	=118	=118
1AA	0r	2G]	1c]	0r
.	.	1F	.	.
1GG	.	.	1B-y	.
.	.	2E	.	.
=119	=119	=119	=119	=119
1FF	0r	2F	1A	0r
.	.	2C	.	.
2r	.	2D	2A	.
2C	.	2E	[2A	.
=120	=120	=120	=120	=120
2D	0r	2F	2A]	0r
2E	.	2C	2A	.
2F	.	2D	2A	.
2C	.	2E	2A	.
=121	=121	=121	=121	=121
2D	0r	2.F	2A	0r
2AA	.	.	2A	.
.	.	4E	.	.
2BB-y	.	2D	1F	.
2AA	.	2C	.	.
=122	=122	=122	=122	=122
2BB-y	0r	2D	1G	0r
2C	.	2E	.	.
2AA	.	2C	2A	.
[2BB-y	.	[2D	[2G	.
=123	=123	=123	=123	=123
2BB-]	0r	4D]	2G]	0r
.	.	4C	.	.
2AA	.	1C	1F	.
1GG	.	.	.	.
.	.	2BB-y	2E	.
=124	=124	=124	=124	=124
0FFl	0r	0Cl	0Fl	0r
=125||	=125||	=125||	=125||	=125||
*M2/1	*M2/1	*M2/1	*M2/1	*M2/1
*met(C|)	*met(C|)	*met(C|)	*met(C|)	*met(C|)
!!section: Sicut erat
!!!OMD: Sicut erat
[0F	0r	0r	0c	0r
=126	=126	=126	=126	=126
0F]	0r	0r	1.d	0f
.	.	.	4c	.
.	.	.	4d	.
=127	=127	=127	=127	=127
0E	0r	0r	0e	1.g
.	.	.	.	4f
.	.	.	.	4g
=128	=128	=128	=128	=128
0D	0r	0F	2r	1.a
.	.	.	1A	.
.	.	.	2B-y	4g
.	.	.	.	4f
=129	=129	=129	=129	=129
1C	0r	1.G	2c	1e
.	.	.	2C	.
1BB-y	.	.	1D	1d
.	.	4F	.	.
.	.	4G	.	.
=130	=130	=130	=130	=130
0AA	0c	0A	0E	2c
.	.	.	.	1cc
.	.	.	.	2b-y
=131	=131	=131	=131	=131
0D	1.d	0A	0F	2.a
.	.	.	.	4g
.	.	.	.	2f
.	4c	.	.	4e
.	4d	.	.	4d
=132	=132	=132	=132	=132
0AA	0e	0A	0E	1c
.	.	.	.	2r
.	.	.	.	[2cc
=133	=133	=133	=133	=133
1A	0e	0r	1r	4cc]
.	.	.	.	4b-y
.	.	.	.	2cc
2G	.	.	2r	2b-y
[2A	.	.	[2c	2cc
=134	=134	=134	=134	=134
4A]	0e	0r	4c]	1a
4G	.	.	4B-y	.
2A	.	.	2c	.
1E	.	.	2B-y	1g
.	.	.	[2c	.
=135	=135	=135	=135	=135
1AA	0r	1A	2c]	2.a
.	.	.	2C	.
.	.	.	.	4g
2D	.	1A	2D	2f
2C	.	.	2E	2e
=136	=136	=136	=136	=136
1D	0r	2A	1F	1d
.	.	2A	.	.
1AA	.	1A	[1E	1c
=137	=137	=137	=137	=137
2C	1e	1A	1E]	2r
2AA	.	.	.	2.cc
2.E	1e	1G	2r	.
.	.	.	.	4b-y
.	.	.	2E	[2b-y
4D	.	.	.	.
=138	=138	=138	=138	=138
2C	2e	1A	2.E	4b-]
.	.	.	.	4a
2AA	2e	.	.	1a
.	.	.	4F	.
1E	1e	1B-y	2.G	.
.	.	.	.	2g
.	.	.	8AL	.
.	.	.	8B-yJ	.
=139	=139	=139	=139	=139
2r	1e	0A	1c	0a
2AA	.	.	.	.
1D	1d	.	2r	.
.	.	.	2A	.
=140	=140	=140	=140	=140
2AA	1e	1A	2c	1r
2C	.	.	2e	.
1D	1f	1A	1d	1a
=141	=141	=141	=141	=141
1AA	0e	2A	1c	1a
.	.	2A	.	.
1r	.	1A	2c	2a
.	.	.	2c	2a
=142	=142	=142	=142	=142
1AA	1r	0r	2c	1a
.	.	.	2c	.
1AA	1e	.	1c	2r
.	.	.	.	2cc
=143	=143	=143	=143	=143
2AA	1e	0r	2r	2a
2AA	.	.	2c	1cc
1AA	2e	.	2A	.
.	2e	.	[2c	4b-y
.	.	.	.	4a
=144	=144	=144	=144	=144
0C	0e	0r	2c]	2g
.	.	.	4B-y	1c
.	.	.	4A	.
.	.	.	2G	.
.	.	.	2e	2g
=145	=145	=145	=145	=145
2D	0r	0r	2d	2f
2E	.	.	1c	2e
2F	.	.	.	1d
2G	.	.	2BnXi	.
=146	=146	=146	=146	=146
[0C	1r	0r	2.c	2r
.	.	.	.	2.c
.	.	.	4d	.
.	1e	.	4e	.
.	.	.	4f	4d
.	.	.	2g	4e
.	.	.	.	4f
=147	=147	=147	=147	=147
0C]	1e	0r	4c	2g
.	.	.	4d	.
.	.	.	4e	4c
.	.	.	4f	4d
.	1c	.	2g	4e
.	.	.	.	4f
.	.	.	[2G	4g
.	.	.	.	4a
=148	=148	=148	=148	=148
0r	1d	0r	4G]	4b-y
.	.	.	4A	4cc
.	.	.	4B-y	1dd
.	.	.	4G	.
.	1e	.	1c	.
.	.	.	.	[2cc
=149	=149	=149	=149	=149
0r	0d	0r	1G	2cc]
.	.	.	.	4bnXi
.	.	.	.	4a
.	.	.	2r	1bnXi
.	.	.	2G	.
=150	=150	=150	=150	=150
2.F	[0cl	1r	2A	[0ccl
.	.	.	2.F	.
4G	.	.	.	.
4A	.	1A	.	.
4B-y	.	.	4G	.
2c	.	.	4A	.
.	.	.	4B-y	.
=151	=151	=151	=151	=151
4F	0c_	1A	2c	0cc_
4G	.	.	.	.
4A	.	.	4F	.
4B-y	.	.	4G	.
2c	.	1F	4A	.
.	.	.	4B-y	.
2F	.	.	4c	.
.	.	.	4d	.
=152	=152	=152	=152	=152
4C	0c_	1G	4e	0cc_
4D	.	.	4f	.
4E	.	.	2.g	.
4C	.	.	.	.
1F	.	1A	.	.
.	.	.	4c	.
.	.	.	[2f	.
=153	=153	=153	=153	=153
0C	0c_	0G	2f]	0cc_
.	.	.	4e	.
.	.	.	4d	.
.	.	.	1e	.
=154	=154	=154	=154	=154
0FFl	0c]	0Fl	0fl	0cc]
==	==	==	==	==
*-	*-	*-	*-	*-
!!!system-decoration: s1,s2,s3,s4,s5
!!!RDF**kern: i = editorial accidental
!!!RDF**kern: l = terminal long
!!!ENC: Janosch Umbreit
!!!END: 2026/02/21
!!!EED: Benjamin Ory
!!!EEV: 2026/03/11
!!!YEC: Copyright 2026 Benjamin Ory, All Rights Reserved
!!!ONB: Translated from MusicXML on 2026/03/11
